X:3
T:Between The Devil & The Deep Blue Sea
C:Harold Arlen
L:1/4
M:C
I:linebreak $
K:F
"F6" z A"Dm" z G |"Gm" A2"C7" c2 |"F6" z A/^G/"Dm" A C |"Gm" A2"C7" c2 |$"Cm" z d"F7" d F |
"Bb6" c B"Bbm6" f ^c |"Am" c/f/"Ab7"c/=B/"Gm" B"C7" A Ox///||1"F6" F2"Gm" z"C7" z :|2$
"F6" F2"E7" z2 ||[K:A]"A" z e"F#m" c/B/A/F/ |"Bm" A F"E7" F2 |"A" z A"Ao" A/B/A/F/ |$
"Bm" A c"E7" e2 ||[K:C]"C" e2"Am" d/c/A/c/ |"Fm" _e _e"Bb7" d3/2 d/ |"Ebm" _e c"Ab7" _B3/2 _A/ ||
[K:F]"Gm" G2"C7""_D.C. al Coda" z2 O||"F6" F4 |]

